icons/glyphs/glyph-shopping-bag.svg

<?xml version="1.0" encoding="UTF-8" standalone="no"?><svg height="16" viewBox="0 0 4.2333332 4.2333332" width="16" xmlns="http://www.w3.org/2000/svg"><sodipodi:namedview/><metadata><rdf:RDF><cc:Work><dc:format>image/svg+xml</dc:format><dc:type/><dc:title/></cc:Work></rdf:RDF></metadata><path d="m1.7487303 0c-.3410287 0-.6232177.28165862-.6232177.62267063v.38083667h-.84749345v2.8061c.001831.234508.18870329.4237259.42322998.4237259h2.83083487c.2345266 0 .4232301-.1892107.4232301-.4237259v-2.8061h-.8474935v-.38083667c0-.34101201-.280122-.62267063-.6211508-.62267063zm0 .3963389h.7379395c.1280249 0 .2247926.0983133.2247926.22633173v.38083667h-1.1875246v-.38083667c0-.12801848.096768-.22633173.2247925-.22633173z" fill="#d0d0d0" stroke-linecap="round" stroke-miterlimit="26.700001" stroke-width=".529167"/></svg>

<?xml version="1.0" encoding="UTF-8" standalone="no"?>
<!-- Created with Inkscape (http://www.inkscape.org/) -->

<svg
   xmlns:dc="http://purl.org/dc/elements/1.1/"
   xmlns:cc="http://creativecommons.org/ns#"
   xmlns:rdf="http://www.w3.org/1999/02/22-rdf-syntax-ns#"
   xmlns:svg="http://www.w3.org/2000/svg"
   xmlns="http://www.w3.org/2000/svg"
   xmlns:sodipodi="http://sodipodi.sourceforge.net/DTD/sodipodi-0.dtd"
   xmlns:inkscape="http://www.inkscape.org/namespaces/inkscape"
   width="16"
   height="16"
   viewBox="0 0 4.2333332 4.2333332"
   version="1.1"
   id="svg8"
   inkscape:version="0.92+devel (b8837397f6, 2017-07-27, custom)"
   sodipodi:docname="glyph-shopping-bag.svg">
  <defs
     id="defs2" />
  <sodipodi:namedview
     id="base"
     pagecolor="#002466"
     bordercolor="#ffffff"
     borderopacity="0.38039216"
     inkscape:pageopacity="1"
     inkscape:pageshadow="2"
     inkscape:zoom="36.415999"
     inkscape:cx="13.587763"
     inkscape:cy="7.9162778"
     inkscape:document-units="px"
     inkscape:current-layer="svg8"
     inkscape:document-rotation="0"
     showgrid="false"
     inkscape:showpageshadow="false"
     borderlayer="true"
     inkscape:window-width="1920"
     inkscape:window-height="1051"
     inkscape:window-x="0"
     inkscape:window-y="0"
     inkscape:window-maximized="1"
     units="px"
     inkscape:snap-page="true"
     inkscape:snap-grids="false"
     inkscape:snap-to-guides="false" />
  <metadata
     id="metadata5">
    <rdf:RDF>
      <cc:Work
         rdf:about="">
        <dc:format>image/svg+xml</dc:format>
        <dc:type
           rdf:resource="http://purl.org/dc/dcmitype/StillImage" />
        <dc:title></dc:title>
      </cc:Work>
    </rdf:RDF>
  </metadata>
  <path
     style="font-variation-settings:normal;vector-effect:none;fill:#d0d0d0;stroke-width:0.52916664;stroke-linecap:round;stroke-miterlimit:26.70000076"
     d="M 1.7487303,0 C 1.4077016,0 1.1255126,0.28165862 1.1255126,0.62267063 V 1.0035073 H 0.27801915 v 2.8061 c 0.001831,0.234508 0.18870329,0.4237259 0.42322998,0.4237259 H 3.532084 c 0.2345266,0 0.4232301,-0.1892107 0.4232301,-0.4237259 v -2.8061 H 3.1078206 V 0.62267063 C 3.1078206,0.28165862 2.8276986,0 2.4866698,0 Z m 0,0.3963389 h 0.7379395 c 0.1280249,0 0.2247926,0.0983133 0.2247926,0.22633173 V 1.0035073 H 1.5239378 V 0.62267063 c 0,-0.12801848 0.096768,-0.22633173 0.2247925,-0.22633173 z"
     id="rect814"
     inkscape:connector-curvature="0"
     sodipodi:nodetypes="sscccsssccssssssccss" />
</svg>
